X: 9297
T: Dance! Dance!
R: reel
M: 4/4
K: Dminor
"A" AB^cd efed|^c2cA "Dm" d2d2|"A7" e2e2 gfed|^c2cA "Dm" d4|
"A" AB^cd efed|^c2cA "Dm" d2d2|"A" ^c2c2 "Gm"BABG|"A" A8:|
|:"F" fga2 a2a2|"C" gage c4|cdef gabg|"F" a4 "A7" agfe|
"Dm" def2 f2f2|"A" efe^c A4|"A7"A=B^cd efce|"Dm" d8:|
"A7" A2^c2 A2^c2|"Dm" d2 d2 gfed|"A" ^c2c2 "Dm" dcdf|"A" e2a2 a4|
"A7" A2^c2 A2^c2|"Dm" d2d2 gfed|"A" ^c2c2 "Gm" BABG|"A" A8:|
"CODA: Dm"d2d^c defg|a2 z2 e2 z2|"A" ,A8||

